annanekrasova/img/titles/posters.svg

<?xml version="1.0" encoding="UTF-8"?> <svg xmlns="http://www.w3.org/2000/svg" width="199" height="198" viewBox="0 0 199 198" fill="none"> <path d="M108.5 1.8502L103.777 1.32543L101.908 18.1419L103.864 18.3593L104.508 12.5629L107.275 12.8704C111.521 13.3422 114.341 12.5205 114.831 8.1077C115.319 3.7187 112.746 2.32197 108.5 1.8502ZM107.485 11.2033L104.694 10.8932L105.547 3.21249L108.338 3.52258C111.2 3.84062 113.241 4.59862 112.875 7.89037C112.504 11.2298 110.347 11.5214 107.485 11.2033Z" fill="#B12B00"></path> <path d="M121.932 12.0559C120.207 16.6891 121.636 21.242 126.314 22.9839C130.948 24.709 135.006 22.1995 136.732 17.5663C138.448 12.9555 137.019 8.40268 132.386 6.67753C127.708 4.93564 123.649 7.44511 121.932 12.0559ZM123.776 12.7426C125.183 8.96401 128.044 6.8534 131.8 8.25194C135.533 9.6421 136.294 13.101 134.887 16.8796C133.472 20.6806 130.634 22.7996 126.901 21.4095C123.145 20.0109 122.361 16.5436 123.776 12.7426Z" fill="#B12B00"></path> <path d="M153.493 32.8679C155.53 29.9876 152.922 27.0255 150.814 24.2704C149.04 21.9574 148.199 20.5691 149.225 19.1191C150.306 17.5908 152.03 18.1045 153.93 19.4489C156.047 20.9456 157.07 23.198 155.407 25.5493L157.013 26.6857C158.607 24.4324 158.976 20.96 154.901 18.0773C151.491 15.6658 149.087 15.9057 147.591 18.0218C145.858 20.4711 147.311 22.6154 149.452 25.3648C151.189 27.5636 153.314 29.7132 151.831 31.8098C150.653 33.4753 148.899 33.0872 146.548 31.4241C143.648 29.373 142.417 27.4145 144.731 24.1423L143.125 23.0059C140.838 26.2389 140.758 29.3864 145.578 32.7957C149.653 35.6784 152.038 34.9252 153.493 32.8679Z" fill="#B12B00"></path> <path d="M175.53 37.5298L166.332 27.3711L165.087 28.4987L169.049 32.8753L157.752 43.104L159.057 44.5451L170.354 34.3164L174.284 38.6574L175.53 37.5298Z" fill="#B12B00"></path> <path d="M166.412 53.3075L171.681 62.3757L173.134 61.5317L168.853 54.1651L173.999 51.1747L177.677 57.5037L179.13 56.6597L175.452 50.3306L180.577 47.3523L184.858 54.7189L186.311 53.8748L181.041 44.8066L166.412 53.3075Z" fill="#B12B00"></path> <path d="M174.339 67.5943L174.933 69.4708L181.409 67.4239L183.969 75.5249L177.493 77.5718L178.086 79.4483L184.15 77.5316C184.997 77.2639 185.248 76.7821 184.958 75.8667L184.351 73.9444L184.9 73.7708C185.747 75.416 187.22 76.3347 189.646 75.568C193.262 74.4252 193.38 71.6945 192.165 67.85L190.473 62.4951L174.339 67.5943ZM183.011 66.9176L189.464 64.8779L190.563 68.3563C191.431 71.1024 191.708 72.8525 188.733 73.7928C185.781 74.7258 184.978 73.1421 184.11 70.396L183.011 66.9176Z" fill="#B12B00"></path> <path d="M184.883 99.0593C188.402 98.8129 189.044 94.9186 189.842 91.5427C190.51 88.7051 191.052 87.1755 192.824 87.0515C194.691 86.9208 195.385 88.5804 195.547 90.9027C195.728 93.4884 194.633 95.7063 191.76 95.9074L191.897 97.8706C194.65 97.6779 197.572 95.7652 197.223 90.7854C196.932 86.6196 195.224 84.9106 192.639 85.0916C189.646 85.3011 188.905 87.7829 188.133 91.1811C187.53 93.9179 187.211 96.9235 184.65 97.1028C182.615 97.2453 181.805 95.6419 181.604 92.7689C181.356 89.2256 182.092 87.0328 186.091 86.7529L185.953 84.7897C182.003 85.0663 179.516 86.9967 179.928 92.8862C180.276 97.8661 182.369 99.2353 184.883 99.0593Z" fill="#B12B00"></path> <path d="M183.243 116.962L182.778 118.501C184.157 118.917 184.215 119.637 184.028 120.257C183.521 121.934 181.225 122.896 180.559 125.101C180.17 126.388 180.613 128.076 182.933 128.777L183.398 127.238C182.02 126.821 181.938 126.095 182.126 125.474C182.625 123.82 184.928 122.836 185.595 120.63C185.976 119.367 185.564 117.663 183.243 116.962Z" fill="#B12B00"></path> <path d="M179.032 155.75L181.884 151.949L168.348 141.797L167.167 143.371L171.832 146.87L170.162 149.098C167.599 152.515 166.874 155.362 170.426 158.026C173.959 160.675 176.469 159.168 179.032 155.75ZM171.492 150.125L173.176 147.878L179.359 152.515L177.674 154.762C175.946 157.066 174.256 158.438 171.607 156.451C168.919 154.435 169.764 152.429 171.492 150.125Z" fill="#B12B00"></path> <path d="M163.444 161.951C160.3 158.136 155.644 157.09 151.791 160.264C147.976 163.409 148.112 168.178 151.257 171.994C154.385 175.791 159.041 176.837 162.857 173.693C166.709 170.518 166.573 165.748 163.444 161.951ZM161.925 163.203C164.489 166.314 164.881 169.847 161.788 172.396C158.714 174.93 155.339 173.854 152.775 170.742C150.196 167.612 149.785 164.095 152.86 161.561C155.953 159.012 159.346 160.072 161.925 163.203Z" fill="#B12B00"></path> <path d="M129.66 178.84C131.138 182.044 135.007 181.262 138.447 180.812C141.337 180.429 142.959 180.394 143.703 182.007C144.488 183.706 143.182 184.943 141.068 185.919C138.715 187.005 136.253 186.767 135.046 184.152L133.259 184.977C134.415 187.483 137.24 189.536 141.772 187.444C145.564 185.694 146.556 183.492 145.47 181.138C144.213 178.415 141.63 178.602 138.179 179.085C135.406 179.492 132.483 180.26 131.407 177.928C130.552 176.076 131.764 174.75 134.379 173.543C137.604 172.055 139.915 171.966 141.595 175.605L143.382 174.78C141.722 171.185 139.035 169.544 133.675 172.018C129.142 174.11 128.604 176.552 129.66 178.84Z" fill="#B12B00"></path> <path d="M114.593 195.709L127.993 192.837L127.641 191.195L121.868 192.432L118.674 177.53L116.774 177.937L119.967 192.839L114.241 194.066L114.593 195.709Z" fill="#B12B00"></path> <path d="M105.259 179.8L94.772 179.63L94.7448 181.31L103.264 181.448L103.167 187.399L95.848 187.281L95.8207 188.96L103.14 189.079L103.044 195.006L94.5247 194.868L94.4974 196.548L104.984 196.718L105.259 179.8Z" fill="#B12B00"></path> <path d="M89.0975 179.49L87.1773 179.059L85.6896 185.686L77.3999 183.825L78.8876 177.198L76.9674 176.767L75.5743 182.973C75.3798 183.839 75.6704 184.298 76.6071 184.508L78.5741 184.95L78.4479 185.512C76.5999 185.417 75.0649 186.228 74.5076 188.71C73.677 192.41 75.9777 193.886 79.9117 194.769L85.3914 195.999L89.0975 179.49ZM85.3216 187.325L83.8391 193.929L80.2797 193.13C77.4697 192.499 75.818 191.858 76.5014 188.814C77.1796 185.793 78.9521 185.895 81.7622 186.526L85.3216 187.325Z" fill="#B12B00"></path> <path d="M56.6231 172.571C55.0567 175.732 58.0925 178.254 60.6019 180.649C62.7128 182.66 63.7583 183.901 62.9698 185.492C62.1386 187.17 60.356 186.929 58.2701 185.896C55.9476 184.745 54.5878 182.678 55.8665 180.098L54.1032 179.224C52.8777 181.697 53.0512 185.184 57.5241 187.401C61.2659 189.255 63.6036 188.646 64.7544 186.323C66.0865 183.635 64.3195 181.742 61.7779 179.357C59.721 177.454 57.2889 175.66 58.4291 173.359C59.3349 171.531 61.1278 171.642 63.7083 172.921C66.891 174.498 68.4106 176.242 66.631 179.834L68.3944 180.707C70.1527 177.159 69.7443 174.037 64.4542 171.416C59.9813 169.199 57.742 170.313 56.6231 172.571Z" fill="#B12B00"></path> <path d="M42.0727 162.119L40.9767 160.942C39.923 161.924 39.2718 161.612 38.8301 161.138C37.636 159.856 37.9612 157.388 36.3908 155.702C35.4747 154.719 33.7932 154.251 32.0195 155.904L33.1155 157.08C34.1692 156.099 34.8379 156.394 35.2796 156.868C36.4574 158.133 36.1485 160.618 37.719 162.304C38.6187 163.27 40.299 163.771 42.0727 162.119Z" fill="#B12B00"></path> <path d="M10.5816 139.083L12.4363 143.458L28.0144 136.854L27.2463 135.042L21.8768 137.319L20.7902 134.755C19.1229 130.822 17.0259 128.766 12.938 130.498C8.87225 132.222 8.91428 135.15 10.5816 139.083ZM19.2341 135.389L20.33 137.974L13.2149 140.99L12.119 138.405C10.995 135.754 10.6568 133.603 13.7061 132.31C16.7996 130.999 18.1101 132.737 19.2341 135.389Z" fill="#B12B00"></path> <path d="M13.0298 122.454C17.9106 121.666 21.1638 118.175 20.3683 113.247C19.5804 108.366 15.3939 106.076 10.5131 106.864C5.65597 107.648 2.40274 111.139 3.19064 116.02C3.98619 120.948 8.17265 123.238 13.0298 122.454ZM12.7161 120.511C8.73567 121.154 5.4879 119.709 4.84917 115.752C4.21426 111.819 6.84625 109.449 10.8267 108.807C14.8309 108.16 18.0748 109.582 18.7097 113.515C19.3485 117.471 16.7203 119.865 12.7161 120.511Z" fill="#B12B00"></path> <path d="M15.5928 84.7612C12.0815 84.4175 10.7998 88.1504 9.4501 91.3461C8.31902 94.0327 7.52916 95.4505 5.76161 95.2775C3.89851 95.0952 3.49123 93.3432 3.718 91.0263C3.97049 88.4466 5.42062 86.4423 8.28692 86.7229L8.47862 84.7642C5.73175 84.4954 2.53226 85.8944 2.04599 90.8626C1.63921 95.0188 3.038 96.9884 5.61768 97.2409C8.60341 97.5331 9.74719 95.2095 11.0754 91.9875C12.1254 89.3894 12.9408 86.479 15.4966 86.7292C17.5269 86.9279 18.0583 88.6438 17.7777 91.5101C17.4317 95.0452 16.3399 97.0846 12.351 96.6941L12.1593 98.6528C16.1004 99.0385 18.8746 97.5497 19.4497 91.6738C19.936 86.7055 18.1008 85.0067 15.5928 84.7612Z" fill="#B12B00"></path> <path d="M8.53656 63.3176L4.28534 76.3455L5.88246 76.8667L7.71398 71.2539L22.2021 75.9816L22.8052 74.1335L8.31704 69.4058L10.1337 63.8387L8.53656 63.3176Z" fill="#B12B00"></path> <path d="M26.8847 63.4087L32.1888 54.3608L30.7395 53.5112L26.4306 60.8613L21.2959 57.8512L24.9979 51.5363L23.5486 50.6867L19.8466 57.0016L14.7326 54.0036L19.0414 46.6535L17.5921 45.8038L12.288 54.8517L26.8847 63.4087Z" fill="#B12B00"></path> <path d="M35.415 49.4876L36.7544 48.0457L31.7781 43.4231L37.5605 37.1984L42.5367 41.821L43.8761 40.3791L39.2164 36.0506C38.5658 35.4462 38.0231 35.4662 37.3697 36.1695L35.9976 37.6466L35.5756 37.2546C36.5884 35.7059 36.6604 33.971 34.7965 32.2396C32.0182 29.6588 29.5847 30.9032 26.8406 33.8573L23.0183 37.972L35.415 49.4876ZM30.5473 42.2797L25.5886 37.6735L28.0714 35.0007C30.0315 32.8907 31.4174 31.7867 33.7033 33.9102C35.9716 36.0173 34.9902 37.4969 33.0301 39.607L30.5473 42.2797Z" fill="#B12B00"></path> <path d="M57.6996 24.9373C55.7508 21.9963 52.0461 23.3572 48.7152 24.3265C45.9172 25.1441 44.3189 25.4258 43.3378 23.9454C42.3038 22.3849 43.4061 20.9635 45.3467 19.6776C47.5073 18.2458 49.9772 18.1062 51.5681 20.507L53.2086 19.4199C51.684 17.1192 48.5799 15.5196 44.4187 18.2771C40.9376 20.5839 40.2921 22.9118 41.7238 25.0725C43.381 27.5733 45.9054 26.9945 49.243 25.992C51.9212 25.1674 54.6937 23.9637 56.1122 26.1044C57.239 27.8049 56.2431 29.2998 53.8423 30.8907C50.8814 32.8527 48.6103 33.2924 46.3964 29.9513L44.7559 31.0384C46.9433 34.3395 49.8488 35.5524 54.7703 32.2911C58.9316 29.5336 59.0916 27.0379 57.6996 24.9373Z" fill="#B12B00"></path> <path d="M73.961 17.4344L75.5289 17.0776C75.2094 15.6735 75.8061 15.2669 76.4379 15.1232C78.1463 14.7344 80.1168 16.2551 82.3634 15.7438C83.6739 15.4456 84.9224 14.2262 84.3845 11.8626L82.8166 12.2194C83.1361 13.6235 82.5448 14.0534 81.913 14.1972C80.228 14.5807 78.2341 13.0653 75.9875 13.5765C74.7004 13.8694 73.4232 15.0708 73.961 17.4344Z" fill="#B12B00"></path> </svg>

<svg xmlns="http://www.w3.org/2000/svg" width="199" height="198" fill="none"><path d="M108.5 1.85l-4.723-.525-1.869 16.817 1.956.217.644-5.796 2.767.307c4.246.472 7.066-.35 7.556-4.762.488-4.39-2.085-5.786-6.331-6.258zm-1.015 9.353l-2.791-.31.853-7.68 2.791.31c2.862.318 4.903 1.076 4.537 4.367-.371 3.34-2.528 3.631-5.39 3.313zm14.447.853c-1.725 4.633-.296 9.186 4.382 10.928 4.634 1.725 8.692-.785 10.418-5.418 1.716-4.61.287-9.163-4.346-10.888-4.678-1.742-8.737.767-10.454 5.378zm1.844.687c1.407-3.779 4.268-5.89 8.024-4.491 3.733 1.39 4.494 4.849 3.087 8.628-1.415 3.8-4.253 5.92-7.986 4.53-3.756-1.4-4.54-4.866-3.125-8.667zm29.717 20.125c2.037-2.88-.571-5.843-2.679-8.598-1.774-2.313-2.615-3.7-1.589-5.15 1.081-1.53 2.805-1.015 4.705.329 2.117 1.497 3.14 3.749 1.477 6.1l1.606 1.137c1.594-2.254 1.963-5.726-2.112-8.609-3.41-2.411-5.814-2.171-7.31-.055-1.733 2.45-.28 4.593 1.861 7.343 1.737 2.199 3.862 4.348 2.379 6.445-1.178 1.665-2.932 1.277-5.283-.386-2.9-2.051-4.131-4.01-1.817-7.282l-1.606-1.136c-2.287 3.233-2.367 6.38 2.453 9.79 4.075 2.882 6.46 2.13 7.915.072zm22.037 4.662l-9.198-10.159-1.245 1.128 3.962 4.376-11.297 10.229 1.305 1.441 11.297-10.229 3.93 4.341 1.246-1.127zm-9.118 15.777l5.269 9.069 1.453-.844-4.281-7.367 5.146-2.99 3.678 6.329 1.453-.844-3.678-6.33 5.125-2.978 4.281 7.367 1.453-.844-5.27-9.068-14.629 8.5zm7.927 14.287l.594 1.877 6.476-2.047 2.56 8.1-6.476 2.048.593 1.876 6.064-1.916c.847-.268 1.098-.75.808-1.665l-.607-1.923.549-.173c.847 1.645 2.32 2.564 4.746 1.797 3.616-1.143 3.734-3.873 2.519-7.718l-1.692-5.355-16.134 5.1zm8.672-.676l6.453-2.04 1.099 3.478c.868 2.746 1.145 4.497-1.83 5.437-2.952.933-3.755-.65-4.623-3.397l-1.099-3.478zm1.872 32.142c3.519-.247 4.161-4.141 4.959-7.517.668-2.838 1.21-4.368 2.982-4.492 1.867-.13 2.561 1.53 2.723 3.852.181 2.585-.914 4.803-3.787 5.004l.137 1.964c2.753-.193 5.675-2.106 5.326-7.086-.291-4.165-1.999-5.874-4.584-5.693-2.993.21-3.734 2.69-4.506 6.09-.603 2.736-.922 5.742-3.483 5.92-2.035.143-2.845-1.46-3.046-4.333-.248-3.543.488-5.736 4.487-6.016l-.138-1.963c-3.95.276-6.437 2.207-6.025 8.096.348 4.98 2.441 6.35 4.955 6.173zm-1.64 17.902l-.465 1.539c1.379.416 1.437 1.136 1.25 1.756-.507 1.677-2.803 2.639-3.469 4.844-.389 1.287.054 2.975 2.374 3.676l.465-1.539c-1.378-.417-1.46-1.143-1.272-1.764.499-1.654 2.802-2.638 3.469-4.844.381-1.263-.031-2.967-2.352-3.668zm-4.211 38.788l2.852-3.801-13.536-10.152-1.181 1.574 4.665 3.499-1.67 2.228c-2.563 3.417-3.288 6.264.264 8.928 3.533 2.649 6.043 1.142 8.606-2.276zm-7.54-5.625l1.684-2.247 6.183 4.637-1.685 2.247c-1.728 2.304-3.418 3.676-6.067 1.689-2.688-2.016-1.843-4.022-.115-6.326zm-8.048 11.826c-3.144-3.815-7.8-4.861-11.653-1.687-3.815 3.145-3.679 7.914-.534 11.73 3.128 3.797 7.784 4.843 11.6 1.699 3.852-3.175 3.716-7.945.587-11.742zm-1.519 1.252c2.564 3.111 2.956 6.644-.137 9.193-3.074 2.534-6.449 1.458-9.013-1.654-2.579-3.13-2.99-6.647.085-9.181 3.093-2.549 6.486-1.489 9.065 1.642zM129.66 178.84c1.478 3.204 5.347 2.422 8.787 1.972 2.89-.383 4.512-.418 5.256 1.195.785 1.699-.521 2.936-2.635 3.912-2.353 1.086-4.815.848-6.022-1.767l-1.787.825c1.156 2.506 3.981 4.559 8.513 2.467 3.792-1.75 4.784-3.952 3.698-6.306-1.257-2.723-3.84-2.536-7.291-2.053-2.773.407-5.696 1.175-6.772-1.157-.855-1.852.357-3.178 2.972-4.385 3.225-1.488 5.536-1.577 7.216 2.062l1.787-.825c-1.66-3.595-4.347-5.236-9.707-2.762-4.533 2.092-5.071 4.534-4.015 6.822zm-15.067 16.869l13.4-2.872-.352-1.642-5.773 1.237-3.194-14.902-1.9.407 3.193 14.902-5.726 1.227.352 1.643zm-9.334-15.909l-10.487-.17-.027 1.68 8.519.138-.097 5.951-7.319-.118-.027 1.679 7.319.119-.096 5.927-8.52-.138-.027 1.68 10.487.17.275-16.918zm-16.162-.31l-1.92-.431-1.487 6.627-8.29-1.861 1.488-6.627-1.92-.431-1.394 6.206c-.194.866.096 1.325 1.033 1.535l1.967.442-.126.562c-1.848-.095-3.383.716-3.94 3.198-.831 3.7 1.47 5.176 5.404 6.059l5.48 1.23 3.706-16.509zm-3.775 7.835l-1.483 6.604-3.56-.799c-2.81-.631-4.461-1.272-3.778-4.316.679-3.021 2.451-2.919 5.261-2.288l3.56.799zm-28.699-14.754c-1.566 3.161 1.47 5.683 3.979 8.078 2.11 2.011 3.156 3.252 2.368 4.843-.831 1.678-2.614 1.437-4.7.404-2.322-1.151-3.682-3.218-2.404-5.798l-1.763-.874c-1.225 2.473-1.052 5.96 3.421 8.177 3.742 1.854 6.08 1.245 7.23-1.078 1.332-2.688-.434-4.581-2.976-6.966-2.057-1.903-4.49-3.697-3.349-5.998.906-1.828 2.699-1.717 5.28-.438 3.182 1.577 4.702 3.321 2.922 6.913l1.763.873c1.759-3.548 1.35-6.67-3.94-9.291-4.473-2.217-6.712-1.103-7.83 1.155zm-14.55-10.452l-1.096-1.177c-1.054.982-1.705.67-2.147.196-1.194-1.282-.869-3.75-2.44-5.436-.915-.983-2.597-1.451-4.37.202l1.095 1.176c1.054-.981 1.723-.686 2.165-.212 1.177 1.265.868 3.75 2.439 5.436.9.966 2.58 1.467 4.354-.185zm-31.491-23.036l1.854 4.375 15.578-6.604-.768-1.812-5.37 2.277-1.086-2.564c-1.667-3.933-3.764-5.989-7.852-4.257-4.066 1.724-4.024 4.652-2.356 8.585zm8.652-3.694l1.096 2.585-7.115 3.016-1.096-2.585c-1.124-2.651-1.462-4.802 1.587-6.095 3.094-1.311 4.404.427 5.528 3.079zm-6.204-12.935c4.88-.788 8.134-4.279 7.338-9.207-.788-4.881-4.974-7.171-9.855-6.383-4.857.784-8.11 4.275-7.322 9.156.795 4.928 4.982 7.218 9.839 6.434zm-.314-1.943c-3.98.643-7.228-.802-7.867-4.759-.635-3.933 1.997-6.303 5.978-6.945 4.004-.647 7.248.775 7.883 4.708.639 3.956-1.99 6.35-5.994 6.996zm2.877-35.75c-3.511-.343-4.793 3.39-6.143 6.585-1.131 2.687-1.92 4.105-3.688 3.931-1.863-.182-2.27-1.934-2.044-4.25.252-2.58 1.703-4.585 4.569-4.304l.192-1.959c-2.747-.269-5.947 1.13-6.433 6.099-.407 4.156.992 6.125 3.572 6.378 2.985.292 4.13-2.031 5.457-5.254 1.05-2.598 1.866-5.508 4.422-5.258 2.03.199 2.561 1.915 2.28 4.781-.345 3.535-1.437 5.575-5.426 5.184l-.192 1.959c3.941.385 6.716-1.103 7.29-6.98.487-4.968-1.348-6.666-3.856-6.912zM8.537 63.318L4.285 76.346l1.597.52 1.832-5.612 14.488 4.728.603-1.849-14.488-4.727 1.817-5.567-1.597-.521zm18.348.091l5.304-9.048-1.45-.85-4.308 7.35-5.135-3.01 3.702-6.315-1.45-.85-3.701 6.316-5.114-2.998 4.308-7.35-1.449-.85-5.304 9.048 14.597 8.557zm8.53-13.921l1.34-1.442-4.977-4.623 5.782-6.225 4.977 4.623 1.34-1.442-4.66-4.328c-.651-.605-1.194-.585-1.847.118l-1.372 1.478-.422-.392c1.012-1.55 1.084-3.284-.78-5.015-2.778-2.581-5.211-1.337-7.955 1.617l-3.823 4.115 12.397 11.516zm-4.868-7.208l-4.958-4.607 2.482-2.672c1.96-2.11 3.346-3.214 5.632-1.09 2.269 2.106 1.287 3.586-.673 5.696l-2.483 2.673zM57.7 24.937c-1.95-2.94-5.654-1.58-8.985-.61-2.798.817-4.396 1.099-5.377-.382-1.034-1.56.068-2.982 2.009-4.267 2.16-1.432 4.63-1.572 6.221.829l1.64-1.087c-1.524-2.3-4.628-3.9-8.79-1.143-3.48 2.307-4.126 4.635-2.694 6.796 1.657 2.5 4.181 1.921 7.519.919 2.678-.825 5.45-2.028 6.87.112 1.126 1.7.13 3.196-2.27 4.787-2.962 1.962-5.233 2.401-7.447-.94l-1.64 1.087c2.187 3.302 5.093 4.514 10.014 1.253 4.162-2.757 4.322-5.253 2.93-7.354zm16.261-7.503l1.568-.356c-.32-1.404.277-1.811.909-1.955 1.708-.389 3.679 1.132 5.925.62 1.31-.297 2.56-1.517 2.022-3.88l-1.568.356c.32 1.405-.272 1.834-.904 1.978-1.685.384-3.679-1.132-5.925-.62-1.288.292-2.565 1.494-2.027 3.857z" fill="#B12B00"/></svg>
